X:32
T:Cameronian
Z: id:dc-reel-32
M:C
L:1/8
K:D Major
B|A2FA DAFA|GFEF GBdB|A2FA DAFA|GBAG FDDB|!
A2FA DAFA|GEE2 GBdB|A2FA DAFA|GBAG FDD:|!
B|Addc d2ed|cdef gfed|cAeA fAeA|cdef gfeg|!
faeg faeg|faec defg|afge fdec|dBAG FDD:|!

